images/3247315.svg

<?xml version="1.0" encoding="UTF-8"?>
<svg xmlns="http://www.w3.org/2000/svg" xmlns:xlink="http://www.w3.org/1999/xlink" width="300pt" height="300pt" viewBox="0 0 300 300" version="1.1">
<defs>
<g>
<symbol overflow="visible" id="glyph0-0">
<path style="stroke:none;" d="M 0.453125 1.59375 L 0.453125 -6.34375 L 4.953125 -6.34375 L 4.953125 1.59375 Z M 0.953125 1.09375 L 4.453125 1.09375 L 4.453125 -5.84375 L 0.953125 -5.84375 Z M 0.953125 1.09375 "/>
</symbol>
<symbol overflow="visible" id="glyph0-1">
<path style="stroke:none;" d="M 0.890625 -6.5625 L 2.078125 -6.5625 L 4.984375 -1.078125 L 4.984375 -6.5625 L 5.84375 -6.5625 L 5.84375 0 L 4.65625 0 L 1.75 -5.484375 L 1.75 0 L 0.890625 0 Z M 0.890625 -6.5625 "/>
</symbol>
<symbol overflow="visible" id="glyph0-2">
<path style="stroke:none;" d="M 0.890625 -6.5625 L 1.765625 -6.5625 L 1.765625 -3.875 L 5 -3.875 L 5 -6.5625 L 5.890625 -6.5625 L 5.890625 0 L 5 0 L 5 -3.125 L 1.765625 -3.125 L 1.765625 0 L 0.890625 0 Z M 0.890625 -6.5625 "/>
</symbol>
<symbol overflow="visible" id="glyph0-3">
<path style="stroke:none;" d="M 3.546875 -5.953125 C 2.898438 -5.953125 2.382812 -5.710938 2 -5.234375 C 1.625 -4.753906 1.4375 -4.101562 1.4375 -3.28125 C 1.4375 -2.445312 1.625 -1.789062 2 -1.3125 C 2.382812 -0.832031 2.898438 -0.59375 3.546875 -0.59375 C 4.191406 -0.59375 4.703125 -0.832031 5.078125 -1.3125 C 5.453125 -1.789062 5.640625 -2.445312 5.640625 -3.28125 C 5.640625 -4.101562 5.453125 -4.753906 5.078125 -5.234375 C 4.703125 -5.710938 4.191406 -5.953125 3.546875 -5.953125 Z M 3.546875 -6.6875 C 4.460938 -6.6875 5.195312 -6.375 5.75 -5.75 C 6.300781 -5.132812 6.578125 -4.3125 6.578125 -3.28125 C 6.578125 -2.238281 6.300781 -1.410156 5.75 -0.796875 C 5.195312 -0.179688 4.460938 0.125 3.546875 0.125 C 2.617188 0.125 1.878906 -0.179688 1.328125 -0.796875 C 0.773438 -1.410156 0.5 -2.238281 0.5 -3.28125 C 0.5 -4.3125 0.773438 -5.132812 1.328125 -5.75 C 1.878906 -6.375 2.617188 -6.6875 3.546875 -6.6875 Z M 3.546875 -6.6875 "/>
</symbol>
<symbol overflow="visible" id="glyph0-4">
<path style="stroke:none;" d="M 1.765625 -5.828125 L 1.765625 -3.359375 L 2.890625 -3.359375 C 3.296875 -3.359375 3.613281 -3.46875 3.84375 -3.6875 C 4.070312 -3.90625 4.1875 -4.207031 4.1875 -4.59375 C 4.1875 -4.988281 4.070312 -5.289062 3.84375 -5.5 C 3.613281 -5.71875 3.296875 -5.828125 2.890625 -5.828125 Z M 0.890625 -6.5625 L 2.890625 -6.5625 C 3.617188 -6.5625 4.171875 -6.394531 4.546875 -6.0625 C 4.929688 -5.726562 5.125 -5.238281 5.125 -4.59375 C 5.125 -3.945312 4.929688 -3.457031 4.546875 -3.125 C 4.171875 -2.800781 3.617188 -2.640625 2.890625 -2.640625 L 1.765625 -2.640625 L 1.765625 0 L 0.890625 0 Z M 0.890625 -6.5625 "/>
</symbol>
</g>
</defs>
<g id="surface34353">
<rect x="0" y="0" width="300" height="300" style="fill:rgb(100%,100%,100%);fill-opacity:1;stroke:none;"/>
<path style="fill:none;stroke-width:1.2;stroke-linecap:butt;stroke-linejoin:miter;stroke:rgb(0%,0%,0%);stroke-opacity:1;stroke-miterlimit:10;" d="M 45.914062 103.007812 L 35.25 125.597656 "/>
<path style="fill:none;stroke-width:1.2;stroke-linecap:butt;stroke-linejoin:miter;stroke:rgb(0%,0%,0%);stroke-opacity:1;stroke-miterlimit:10;" d="M 60.144531 123.539062 L 45.914062 103.007812 "/>
<path style="fill:none;stroke-width:1.2;stroke-linecap:butt;stroke-linejoin:miter;stroke:rgb(0%,0%,0%);stroke-opacity:1;stroke-miterlimit:10;" d="M 35.25 125.597656 L 60.144531 123.539062 "/>
<path style="fill:none;stroke-width:1.2;stroke-linecap:butt;stroke-linejoin:miter;stroke:rgb(0%,0%,0%);stroke-opacity:1;stroke-miterlimit:10;" d="M 60.144531 123.539062 L 82.734375 134.203125 "/>
<path style="fill:none;stroke-width:1.2;stroke-linecap:butt;stroke-linejoin:miter;stroke:rgb(0%,0%,0%);stroke-opacity:1;stroke-miterlimit:10;" d="M 82.734375 134.203125 L 93 127.089844 "/>
<path style="fill:none;stroke-width:1.2;stroke-linecap:butt;stroke-linejoin:miter;stroke:rgb(0%,0%,100%);stroke-opacity:1;stroke-miterlimit:10;" d="M 93 127.089844 L 103.265625 119.972656 "/>
<path style="fill:none;stroke-width:1.2;stroke-linecap:butt;stroke-linejoin:miter;stroke:rgb(0%,0%,100%);stroke-opacity:1;stroke-miterlimit:10;" d="M 103.265625 119.972656 L 114.5625 125.304688 "/>
<path style="fill:none;stroke-width:1.2;stroke-linecap:butt;stroke-linejoin:miter;stroke:rgb(0%,0%,0%);stroke-opacity:1;stroke-miterlimit:10;" d="M 114.5625 125.304688 L 125.859375 130.636719 "/>
<path style=" stroke:none;fill-rule:nonzero;fill:rgb(100%,100%,100%);fill-opacity:1;" d="M 96.265625 114.472656 L 110.265625 114.472656 L 110.265625 125.472656 L 96.265625 125.472656 Z M 96.265625 114.472656 "/>
<g style="fill:rgb(0%,0%,100%);fill-opacity:1;">
  <use xlink:href="#glyph0-1" x="96.265625" y="123.135742"/>
  <use xlink:href="#glyph0-2" x="103.243164" y="123.135742"/>
</g>
<path style="fill:none;stroke-width:1.2;stroke-linecap:butt;stroke-linejoin:miter;stroke:rgb(0%,0%,0%);stroke-opacity:1;stroke-miterlimit:10;" d="M 122.929688 130.878906 L 123.957031 143.328125 "/>
<path style="fill:none;stroke-width:1.2;stroke-linecap:butt;stroke-linejoin:miter;stroke:rgb(100%,0%,0%);stroke-opacity:1;stroke-miterlimit:10;" d="M 123.957031 143.328125 L 124.988281 155.777344 "/>
<path style="fill:none;stroke-width:1.2;stroke-linecap:butt;stroke-linejoin:miter;stroke:rgb(0%,0%,0%);stroke-opacity:1;stroke-miterlimit:10;" d="M 128.785156 130.394531 L 129.816406 142.84375 "/>
<path style="fill:none;stroke-width:1.2;stroke-linecap:butt;stroke-linejoin:miter;stroke:rgb(100%,0%,0%);stroke-opacity:1;stroke-miterlimit:10;" d="M 129.816406 142.84375 L 130.84375 155.292969 "/>
<path style="fill:none;stroke-width:1;stroke-linecap:butt;stroke-linejoin:miter;stroke:rgb(0%,0%,0%);stroke-opacity:1;stroke-miterlimit:10;" d="M 146.390625 116.40625 L 146.390625 116.40625 M 143.664062 117.660156 L 144.257812 118.519531 M 140.9375 118.914062 L 142.125 120.628906 M 138.214844 120.171875 L 139.996094 122.742188 M 135.488281 121.425781 L 137.863281 124.851562 M 132.761719 122.679688 L 135.734375 126.964844 M 130.039062 123.933594 L 133.601562 129.074219 M 127.3125 125.1875 L 131.472656 131.1875 M 124.589844 126.441406 L 129.339844 133.296875 M 123.347656 127.015625 L 128.367188 134.261719 "/>
<path style=" stroke:none;fill-rule:nonzero;fill:rgb(100%,100%,100%);fill-opacity:1;" d="M 123.917969 150.035156 L 131.917969 150.035156 L 131.917969 161.035156 L 123.917969 161.035156 Z M 123.917969 150.035156 "/>
<g style="fill:rgb(100%,0%,0%);fill-opacity:1;">
  <use xlink:href="#glyph0-3" x="123.917969" y="158.698242"/>
</g>
<path style="fill:none;stroke-width:1.2;stroke-linecap:butt;stroke-linejoin:miter;stroke:rgb(0%,0%,0%);stroke-opacity:1;stroke-miterlimit:10;" d="M 146.390625 116.40625 L 157.054688 93.816406 "/>
<path style="fill:none;stroke-width:1.2;stroke-linecap:butt;stroke-linejoin:miter;stroke:rgb(0%,0%,0%);stroke-opacity:1;stroke-miterlimit:10;" d="M 171.285156 114.347656 L 146.390625 116.40625 "/>
<path style=" stroke:none;fill-rule:nonzero;fill:rgb(0%,0%,0%);fill-opacity:1;" d="M 171.285156 114.347656 L 160.675781 91.304688 L 153.429688 96.328125 Z M 171.285156 114.347656 "/>
<path style="fill:none;stroke-width:1.2;stroke-linecap:butt;stroke-linejoin:miter;stroke:rgb(0%,0%,0%);stroke-opacity:1;stroke-miterlimit:10;" d="M 171.285156 114.347656 L 193.875 125.011719 "/>
<path style="fill:none;stroke-width:1;stroke-linecap:butt;stroke-linejoin:miter;stroke:rgb(0%,0%,0%);stroke-opacity:1;stroke-miterlimit:10;" d="M 193.875 125.011719 L 193.875 125.011719 M 196.601562 123.757812 L 196.007812 122.902344 M 199.324219 122.503906 L 198.136719 120.789062 M 202.050781 121.25 L 200.269531 118.679688 M 204.773438 119.996094 L 202.398438 116.566406 M 207.5 118.742188 L 204.53125 114.457031 M 210.226562 117.484375 L 206.660156 112.34375 M 212.949219 116.230469 L 208.792969 110.234375 M 215.675781 114.976562 L 210.921875 108.121094 M 216.917969 114.40625 L 211.894531 107.160156 "/>
<path style="fill:none;stroke-width:1.2;stroke-linecap:butt;stroke-linejoin:miter;stroke:rgb(0%,0%,0%);stroke-opacity:1;stroke-miterlimit:10;" d="M 193.875 125.011719 L 194.902344 137.460938 "/>
<path style="fill:none;stroke-width:1.2;stroke-linecap:butt;stroke-linejoin:miter;stroke:rgb(0%,0%,100%);stroke-opacity:1;stroke-miterlimit:10;" d="M 194.902344 137.460938 L 195.933594 149.910156 "/>
<path style="fill:none;stroke-width:1.2;stroke-linecap:butt;stroke-linejoin:miter;stroke:rgb(0%,0%,0%);stroke-opacity:1;stroke-miterlimit:10;" d="M 214.40625 110.78125 L 236.996094 121.449219 "/>
<path style="fill:none;stroke-width:1.2;stroke-linecap:butt;stroke-linejoin:miter;stroke:rgb(0%,0%,0%);stroke-opacity:1;stroke-miterlimit:10;" d="M 219.175781 106.535156 L 237.246094 115.066406 "/>
<path style="fill:none;stroke-width:1.2;stroke-linecap:butt;stroke-linejoin:miter;stroke:rgb(0%,0%,0%);stroke-opacity:1;stroke-miterlimit:10;" d="M 212.347656 85.886719 L 214.40625 110.78125 "/>
<path style="fill:none;stroke-width:1.2;stroke-linecap:butt;stroke-linejoin:miter;stroke:rgb(0%,0%,0%);stroke-opacity:1;stroke-miterlimit:10;" d="M 236.996094 121.449219 L 257.527344 107.214844 "/>
<path style="fill:none;stroke-width:1.2;stroke-linecap:butt;stroke-linejoin:miter;stroke:rgb(0%,0%,0%);stroke-opacity:1;stroke-miterlimit:10;" d="M 257.527344 107.214844 L 255.46875 82.320312 "/>
<path style="fill:none;stroke-width:1.2;stroke-linecap:butt;stroke-linejoin:miter;stroke:rgb(0%,0%,0%);stroke-opacity:1;stroke-miterlimit:10;" d="M 251.464844 105.210938 L 249.816406 85.292969 "/>
<path style="fill:none;stroke-width:1.2;stroke-linecap:butt;stroke-linejoin:miter;stroke:rgb(0%,0%,0%);stroke-opacity:1;stroke-miterlimit:10;" d="M 255.46875 82.320312 L 232.878906 71.65625 "/>
<path style="fill:none;stroke-width:1.2;stroke-linecap:butt;stroke-linejoin:miter;stroke:rgb(0%,0%,0%);stroke-opacity:1;stroke-miterlimit:10;" d="M 232.878906 71.65625 L 212.347656 85.886719 "/>
<path style="fill:none;stroke-width:1.2;stroke-linecap:butt;stroke-linejoin:miter;stroke:rgb(0%,0%,0%);stroke-opacity:1;stroke-miterlimit:10;" d="M 234.175781 77.910156 L 217.75 89.292969 "/>
<path style="fill:none;stroke-width:1.2;stroke-linecap:butt;stroke-linejoin:miter;stroke:rgb(0%,0%,100%);stroke-opacity:1;stroke-miterlimit:10;" d="M 195.933594 149.910156 L 207.230469 155.242188 "/>
<path style="fill:none;stroke-width:1.2;stroke-linecap:butt;stroke-linejoin:miter;stroke:rgb(100%,50%,0%);stroke-opacity:1;stroke-miterlimit:10;" d="M 207.230469 155.242188 L 218.523438 160.574219 "/>
<path style=" stroke:none;fill-rule:nonzero;fill:rgb(100%,100%,100%);fill-opacity:1;" d="M 188.933594 144.410156 L 202.933594 144.410156 L 202.933594 155.410156 L 188.933594 155.410156 Z M 188.933594 144.410156 "/>
<g style="fill:rgb(0%,0%,100%);fill-opacity:1;">
  <use xlink:href="#glyph0-1" x="188.933594" y="153.073242"/>
  <use xlink:href="#glyph0-2" x="195.911133" y="153.073242"/>
</g>
<path style="fill:none;stroke-width:1.2;stroke-linecap:butt;stroke-linejoin:miter;stroke:rgb(100%,50%,0%);stroke-opacity:1;stroke-miterlimit:10;" d="M 217.269531 163.230469 L 228.5625 168.566406 "/>
<path style="fill:none;stroke-width:1.2;stroke-linecap:butt;stroke-linejoin:miter;stroke:rgb(100%,0%,0%);stroke-opacity:1;stroke-miterlimit:10;" d="M 228.5625 168.566406 L 239.859375 173.898438 "/>
<path style="fill:none;stroke-width:1.2;stroke-linecap:butt;stroke-linejoin:miter;stroke:rgb(100%,50%,0%);stroke-opacity:1;stroke-miterlimit:10;" d="M 219.777344 157.917969 L 231.074219 163.25 "/>
<path style="fill:none;stroke-width:1.2;stroke-linecap:butt;stroke-linejoin:miter;stroke:rgb(100%,0%,0%);stroke-opacity:1;stroke-miterlimit:10;" d="M 231.074219 163.25 L 242.367188 168.582031 "/>
<path style="fill:none;stroke-width:1.2;stroke-linecap:butt;stroke-linejoin:miter;stroke:rgb(100%,50%,0%);stroke-opacity:1;stroke-miterlimit:10;" d="M 218.523438 160.574219 L 223.855469 149.28125 "/>
<path style="fill:none;stroke-width:1.2;stroke-linecap:butt;stroke-linejoin:miter;stroke:rgb(0%,0%,0%);stroke-opacity:1;stroke-miterlimit:10;" d="M 223.855469 149.28125 L 229.1875 137.984375 "/>
<path style="fill:none;stroke-width:1.2;stroke-linecap:butt;stroke-linejoin:miter;stroke:rgb(100%,50%,0%);stroke-opacity:1;stroke-miterlimit:10;" d="M 218.523438 160.574219 L 213.191406 171.871094 "/>
<path style="fill:none;stroke-width:1.2;stroke-linecap:butt;stroke-linejoin:miter;stroke:rgb(0%,0%,0%);stroke-opacity:1;stroke-miterlimit:10;" d="M 213.191406 171.871094 L 207.859375 183.164062 "/>
<path style=" stroke:none;fill-rule:nonzero;fill:rgb(100%,100%,100%);fill-opacity:1;" d="M 215.523438 155.074219 L 221.523438 155.074219 L 221.523438 166.074219 L 215.523438 166.074219 Z M 215.523438 155.074219 "/>
<g style="fill:rgb(100%,50%,0%);fill-opacity:1;">
  <use xlink:href="#glyph0-4" x="215.523438" y="163.737305"/>
</g>
<path style=" stroke:none;fill-rule:nonzero;fill:rgb(100%,100%,100%);fill-opacity:1;" d="M 237.113281 165.738281 L 245.113281 165.738281 L 245.113281 176.738281 L 237.113281 176.738281 Z M 237.113281 165.738281 "/>
<g style="fill:rgb(100%,0%,0%);fill-opacity:1;">
  <use xlink:href="#glyph0-3" x="237.113281" y="174.401367"/>
</g>
<path style="fill:none;stroke-width:1.2;stroke-linecap:butt;stroke-linejoin:miter;stroke:rgb(0%,0%,0%);stroke-opacity:1;stroke-miterlimit:10;" d="M 229.1875 137.984375 L 254.085938 135.925781 "/>
<path style="fill:none;stroke-width:1.2;stroke-linecap:butt;stroke-linejoin:miter;stroke:rgb(0%,0%,0%);stroke-opacity:1;stroke-miterlimit:10;" d="M 231.195312 131.921875 L 251.109375 130.273438 "/>
<path style="fill:none;stroke-width:1.2;stroke-linecap:butt;stroke-linejoin:miter;stroke:rgb(0%,0%,0%);stroke-opacity:1;stroke-miterlimit:10;" d="M 214.957031 117.453125 L 229.1875 137.984375 "/>
<path style="fill:none;stroke-width:1.2;stroke-linecap:butt;stroke-linejoin:miter;stroke:rgb(0%,0%,0%);stroke-opacity:1;stroke-miterlimit:10;" d="M 254.085938 135.925781 L 264.75 113.335938 "/>
<path style="fill:none;stroke-width:1.2;stroke-linecap:butt;stroke-linejoin:miter;stroke:rgb(0%,0%,0%);stroke-opacity:1;stroke-miterlimit:10;" d="M 264.75 113.335938 L 250.519531 92.804688 "/>
<path style="fill:none;stroke-width:1.2;stroke-linecap:butt;stroke-linejoin:miter;stroke:rgb(0%,0%,0%);stroke-opacity:1;stroke-miterlimit:10;" d="M 258.496094 114.632812 L 247.109375 98.207031 "/>
<path style="fill:none;stroke-width:1.2;stroke-linecap:butt;stroke-linejoin:miter;stroke:rgb(0%,0%,0%);stroke-opacity:1;stroke-miterlimit:10;" d="M 250.519531 92.804688 L 225.621094 94.863281 "/>
<path style="fill:none;stroke-width:1.2;stroke-linecap:butt;stroke-linejoin:miter;stroke:rgb(0%,0%,0%);stroke-opacity:1;stroke-miterlimit:10;" d="M 225.621094 94.863281 L 214.957031 117.453125 "/>
<path style="fill:none;stroke-width:1.2;stroke-linecap:butt;stroke-linejoin:miter;stroke:rgb(0%,0%,0%);stroke-opacity:1;stroke-miterlimit:10;" d="M 229.871094 99.632812 L 221.339844 117.703125 "/>
<path style="fill:none;stroke-width:1.2;stroke-linecap:butt;stroke-linejoin:miter;stroke:rgb(0%,0%,0%);stroke-opacity:1;stroke-miterlimit:10;" d="M 207.859375 183.164062 L 222.089844 203.695312 "/>
<path style="fill:none;stroke-width:1.2;stroke-linecap:butt;stroke-linejoin:miter;stroke:rgb(0%,0%,0%);stroke-opacity:1;stroke-miterlimit:10;" d="M 204.449219 188.566406 L 215.835938 204.992188 "/>
<path style="fill:none;stroke-width:1.2;stroke-linecap:butt;stroke-linejoin:miter;stroke:rgb(0%,0%,0%);stroke-opacity:1;stroke-miterlimit:10;" d="M 182.960938 185.222656 L 207.859375 183.164062 "/>
<path style="fill:none;stroke-width:1.2;stroke-linecap:butt;stroke-linejoin:miter;stroke:rgb(0%,0%,0%);stroke-opacity:1;stroke-miterlimit:10;" d="M 222.089844 203.695312 L 211.425781 226.285156 "/>
<path style="fill:none;stroke-width:1.2;stroke-linecap:butt;stroke-linejoin:miter;stroke:rgb(0%,0%,0%);stroke-opacity:1;stroke-miterlimit:10;" d="M 211.425781 226.285156 L 186.527344 228.34375 "/>
<path style="fill:none;stroke-width:1.2;stroke-linecap:butt;stroke-linejoin:miter;stroke:rgb(0%,0%,0%);stroke-opacity:1;stroke-miterlimit:10;" d="M 208.449219 220.632812 L 188.53125 222.28125 "/>
<path style="fill:none;stroke-width:1.2;stroke-linecap:butt;stroke-linejoin:miter;stroke:rgb(0%,0%,0%);stroke-opacity:1;stroke-miterlimit:10;" d="M 186.527344 228.34375 L 172.296875 207.8125 "/>
<path style="fill:none;stroke-width:1.2;stroke-linecap:butt;stroke-linejoin:miter;stroke:rgb(0%,0%,0%);stroke-opacity:1;stroke-miterlimit:10;" d="M 172.296875 207.8125 L 182.960938 185.222656 "/>
<path style="fill:none;stroke-width:1.2;stroke-linecap:butt;stroke-linejoin:miter;stroke:rgb(0%,0%,0%);stroke-opacity:1;stroke-miterlimit:10;" d="M 178.679688 208.0625 L 187.210938 189.992188 "/>
</g>
</svg>

<svg xmlns="http://www.w3.org/2000/svg" xmlns:xlink="http://www.w3.org/1999/xlink" width="300pt" height="300pt" viewBox="0 0 300 300"><defs><symbol overflow="visible"><path d="M.453 1.594v-7.938h4.5v7.938zm.5-.5h3.5v-6.938h-3.5zm0 0"/></symbol><symbol overflow="visible" id="a"><path d="M.89-6.563H2.08l2.906 5.485v-5.484h.86V0H4.656L1.75-5.484V0H.89zm0 0"/></symbol><symbol overflow="visible" id="b"><path d="M.89-6.563h.876v2.688H5v-2.688h.89V0H5v-3.125H1.766V0H.89zm0 0"/></symbol><symbol overflow="visible" id="c"><path d="M3.547-5.953c-.65 0-1.164.242-1.547.72-.375.48-.563 1.13-.563 1.952 0 .835.188 1.49.563 1.967.383.48.898.72 1.547.72.644 0 1.156-.24 1.53-.72.376-.476.564-1.132.564-1.968 0-.822-.187-1.474-.562-1.954-.375-.477-.887-.72-1.53-.72zm0-.734c.914 0 1.648.312 2.203.937.55.617.828 1.438.828 2.47 0 1.042-.277 1.87-.828 2.483-.555.617-1.29.922-2.203.922-.93 0-1.668-.305-2.22-.922C.774-1.41.5-2.237.5-3.28c0-1.033.273-1.853.828-2.47.55-.625 1.29-.938 2.22-.938zm0 0"/></symbol><symbol overflow="visible" id="d"><path d="M1.766-5.828v2.47H2.89c.407 0 .723-.11.954-.33.226-.218.344-.52.344-.906 0-.394-.118-.695-.344-.906-.23-.22-.547-.328-.953-.328zM.89-6.562h2c.727 0 1.282.167 1.657.5.383.335.578.824.578 1.468 0 .65-.195 1.137-.578 1.47-.375.323-.93.483-1.656.483H1.767V0H.89zm0 0"/></symbol></defs><g><path fill="#fff" d="M0 0h300v300H0z"/><path d="M45.914 103.008l-10.664 22.59M60.145 123.54l-14.23-20.532M35.25 125.598l24.895-2.06M60.145 123.54l22.59 10.663M82.734 134.203L93 127.09" stroke-width="1.2" stroke="#000" stroke-miterlimit="10" fill="none"/><path d="M93 127.09l10.266-7.117M103.266 119.973l11.296 5.332" stroke-width="1.2" stroke="#00f" stroke-miterlimit="10" fill="none"/><path d="M114.563 125.305l11.296 5.332" stroke-width="1.2" stroke="#000" stroke-miterlimit="10" fill="none"/><path d="M96.266 114.473h14v11h-14zm0 0" fill="#fff"/><g fill="#00f"><use xlink:href="#a" x="96.266" y="123.136"/><use xlink:href="#b" x="103.243" y="123.136"/></g><path d="M122.93 130.88l1.027 12.448" stroke-width="1.2" stroke="#000" stroke-miterlimit="10" fill="none"/><path d="M123.957 143.328l1.03 12.45" stroke-width="1.2" stroke="#f00" stroke-miterlimit="10" fill="none"/><path d="M128.785 130.395l1.03 12.45" stroke-width="1.2" stroke="#000" stroke-miterlimit="10" fill="none"/><path d="M129.816 142.844l1.028 12.45" stroke-width="1.2" stroke="#f00" stroke-miterlimit="10" fill="none"/><path d="M146.39 116.406m-2.726 1.254l.594.86m-3.32.394l1.187 1.715m-3.91-.458l1.78 2.57m-4.507-1.316l2.375 3.426m-5.1-2.172l2.97 4.285m-5.694-3.03l3.562 5.14m-6.29-3.887l4.16 6m-6.882-4.747l4.75 6.857m-5.992-6.28l5.02 7.245" stroke="#000" stroke-miterlimit="10" fill="none"/><path d="M123.918 150.035h8v11h-8zm0 0" fill="#fff"/><use xlink:href="#c" x="123.918" y="158.698" fill="#f00"/><path d="M146.39 116.406l10.665-22.59M171.285 114.348l-24.894 2.058" stroke-width="1.2" stroke="#000" stroke-miterlimit="10" fill="none"/><path d="M171.285 114.348l-10.61-23.043-7.245 5.023zm0 0"/><path d="M171.285 114.348l22.59 10.664" stroke-width="1.2" stroke="#000" stroke-miterlimit="10" fill="none"/><path d="M193.875 125.012m2.727-1.254l-.594-.856m3.316-.398l-1.187-1.715m3.914.46l-1.78-2.57m4.503 1.316l-2.375-3.43m5.102 2.176l-2.97-4.285m5.697 3.027l-3.567-5.14m6.29 3.886l-4.157-5.996m6.883 4.743l-4.754-6.856m5.996 6.286l-5.023-7.246" stroke="#000" stroke-miterlimit="10" fill="none"/><path d="M193.875 125.012l1.027 12.45" stroke-width="1.2" stroke="#000" stroke-miterlimit="10" fill="none"/><path d="M194.902 137.46l1.032 12.45" stroke-width="1.2" stroke="#00f" stroke-miterlimit="10" fill="none"/><path d="M214.406 110.78l22.59 10.67M219.176 106.535l18.07 8.53M212.348 85.887l2.058 24.894M236.996 121.45l20.53-14.235M257.527 107.215L255.47 82.32M251.465 105.21l-1.65-19.917M255.47 82.32l-22.59-10.664M232.88 71.656l-20.532 14.23M234.176 77.91L217.75 89.293" stroke-width="1.2" stroke="#000" stroke-miterlimit="10" fill="none"/><path d="M195.934 149.91l11.296 5.332" stroke-width="1.2" stroke="#00f" stroke-miterlimit="10" fill="none"/><path d="M207.23 155.242l11.293 5.332" stroke-width="1.2" stroke="#ff7f00" stroke-miterlimit="10" fill="none"/><path d="M188.934 144.41h14v11h-14zm0 0" fill="#fff"/><g fill="#00f"><use xlink:href="#a" x="188.934" y="153.073"/><use xlink:href="#b" x="195.911" y="153.073"/></g><path d="M217.27 163.23l11.292 5.336" stroke-width="1.2" stroke="#ff7f00" stroke-miterlimit="10" fill="none"/><path d="M228.563 168.566l11.296 5.332" stroke-width="1.2" stroke="#f00" stroke-miterlimit="10" fill="none"/><path d="M219.777 157.918l11.297 5.332" stroke-width="1.2" stroke="#ff7f00" stroke-miterlimit="10" fill="none"/><path d="M231.074 163.25l11.293 5.332" stroke-width="1.2" stroke="#f00" stroke-miterlimit="10" fill="none"/><path d="M218.523 160.574l5.332-11.293" stroke-width="1.2" stroke="#ff7f00" stroke-miterlimit="10" fill="none"/><path d="M223.855 149.28l5.333-11.296" stroke-width="1.2" stroke="#000" stroke-miterlimit="10" fill="none"/><path d="M218.523 160.574l-5.332 11.297" stroke-width="1.2" stroke="#ff7f00" stroke-miterlimit="10" fill="none"/><path d="M213.19 171.87l-5.33 11.294" stroke-width="1.2" stroke="#000" stroke-miterlimit="10" fill="none"/><path d="M215.523 155.074h6v11h-6zm0 0" fill="#fff"/><use xlink:href="#d" x="215.523" y="163.737" fill="#ff7f00"/><path d="M237.113 165.738h8v11h-8zm0 0" fill="#fff"/><use xlink:href="#c" x="237.113" y="174.401" fill="#f00"/><path d="M229.188 137.984l24.898-2.058M231.195 131.922l19.914-1.65M214.957 117.453l14.23 20.53M254.086 135.926l10.664-22.59M264.75 113.336l-14.23-20.53M258.496 114.633L247.11 98.207M250.52 92.805l-24.9 2.058M225.62 94.863l-10.663 22.59M229.87 99.633l-8.53 18.07M207.86 183.164l14.23 20.53M204.45 188.566l11.386 16.426M182.96 185.223l24.9-2.06M222.09 203.695l-10.664 22.59M211.426 226.285l-24.9 2.06M208.45 220.633l-19.92 1.648M186.527 228.344l-14.23-20.53M172.297 207.813l10.664-22.59M178.68 208.063l8.53-18.07" stroke-width="1.2" stroke="#000" stroke-miterlimit="10" fill="none"/></g></svg>
